Sweet-Rainbow/icons/distributor-logo-archlabs.svg

<?xml version="1.0" encoding="UTF-8" standalone="no"?>
<!-- Generator: Gravit.io -->

<svg
   xmlns:dc="http://purl.org/dc/elements/1.1/"
   xmlns:cc="http://creativecommons.org/ns#"
   xmlns:rdf="http://www.w3.org/1999/02/22-rdf-syntax-ns#"
   xmlns:svg="http://www.w3.org/2000/svg"
   xmlns="http://www.w3.org/2000/svg"
   xmlns:sodipodi="http://sodipodi.sourceforge.net/DTD/sodipodi-0.dtd"
   xmlns:inkscape="http://www.inkscape.org/namespaces/inkscape"
   style="isolation:isolate"
   viewBox="0 0 36 36"
   width="48"
   height="48"
   version="1.1"
   id="svg9"
   sodipodi:docname="distributor-logo-archlabs.svg"
   inkscape:version="0.92.4 (5da689c313, 2019-01-14)">
  <metadata
     id="metadata15">
    <rdf:RDF>
      <cc:Work
         rdf:about="">
        <dc:format>image/svg+xml</dc:format>
        <dc:type
           rdf:resource="http://purl.org/dc/dcmitype/StillImage" />
        <dc:title></dc:title>
      </cc:Work>
    </rdf:RDF>
  </metadata>
  <defs
     id="defs13" />
  <sodipodi:namedview
     pagecolor="#ffffff"
     bordercolor="#666666"
     borderopacity="1"
     objecttolerance="10"
     gridtolerance="10"
     guidetolerance="10"
     inkscape:pageopacity="0"
     inkscape:pageshadow="2"
     inkscape:window-width="640"
     inkscape:window-height="480"
     id="namedview11"
     showgrid="false"
     inkscape:zoom="29.365243"
     inkscape:cx="25.325443"
     inkscape:cy="32"
     inkscape:current-layer="svg9"
     units="px" />
  <linearGradient
     id="_lgradient_17"
     x1="0"
     y1="0.5"
     x2="1"
     y2="0.5"
     gradientTransform="matrix(40,0,0,46.752,4,0.624)"
     gradientUnits="userSpaceOnUse">
    <stop
       offset="0%"
       stop-opacity="1"
       style="stop-color:rgb(255,95,109)"
       id="stop2" />
    <stop
       offset="98.26086956521739%"
       stop-opacity="1"
       style="stop-color:rgb(255,195,113)"
       id="stop4" />
  </linearGradient>
  <g
     id="g826"
     transform="matrix(0.77001724,0,0,0.77001724,-0.48041376,-0.48049075)">
    <path
       id="path7"
       d="m 25,17 c 0,0 -6,4 -6,9 0,2.281 0.534,4.664 1.25,6.846 C 20.097,32.222 20,31.599 20,31 c 0,-3 3,-5 3,-5 0,0 3,2 3,5 0,2.35 -0.444,4.458 -0.912,6.055 0.468,0.033 0.945,0.087 1.432,0.158 C 27.763,34.967 29,31.985 29,29 29,24 25,20 25,20 Z M 39.431,42.801 C 39.431,42.801 30.172,37.4 24,37.4 17.828,37.4 8.569,42.801 8.569,42.801 18.599,25.056 18.599,24.284 24,11.94 c 5.401,12.344 5.401,13.116 15.431,30.861 z m -2.275,3.967 c -1.6,-0.926 -3.257,-1.749 -4.961,-2.481 -1.451,-0.651 -2.949,-1.2 -4.48,-1.657 C 27.018,42.424 26.32,42.253 25.623,42.127 25.086,42.035 24.537,41.978 24,41.978 c -0.537,0 -1.086,0.057 -1.623,0.149 -0.697,0.126 -1.395,0.297 -2.092,0.503 -1.531,0.457 -3.029,1.006 -4.48,1.657 -1.704,0.732 -3.361,1.555 -4.961,2.481 C 9.975,47.27 8.969,47.465 7.975,47.339 6.98,47.202 6.055,46.745 5.346,46.047 4.637,45.339 4.18,44.413 4.043,43.418 c -0.137,-0.994 0.057,-2 0.549,-2.868 1.783,-3.144 3.543,-6.287 5.269,-9.453 1.143,-2.081 2.252,-4.172 3.326,-6.287 0.823,-1.634 1.612,-3.292 2.355,-4.949 0.834,-1.863 1.657,-3.715 2.457,-5.578 C 19.977,9.711 21.977,5.162 24,0.624 c 2.023,4.538 4.023,9.087 6.001,13.659 0.8,1.863 1.623,3.715 2.457,5.578 0.743,1.657 1.532,3.315 2.355,4.949 1.074,2.115 2.183,4.206 3.326,6.287 1.726,3.166 3.486,6.309 5.269,9.453 0.492,0.868 0.686,1.874 0.549,2.868 -0.137,0.995 -0.594,1.921 -1.303,2.629 -0.709,0.698 -1.634,1.155 -2.629,1.292 -0.994,0.126 -2,-0.069 -2.869,-0.571 z"
       style="fill:url(#_lgradient_17);fill-rule:evenodd"
       inkscape:connector-curvature="0" />
  </g>
</svg>

<?xml version="1.0" encoding="UTF-8" standalone="no"?><!-- Generator: Gravit.io --><svg xmlns="http://www.w3.org/2000/svg" xmlns:xlink="http://www.w3.org/1999/xlink" style="isolation:isolate" viewBox="0 0 48 48" width="48pt" height="48pt"><linearGradient id="_lgradient_17" x1="0" y1="0.5" x2="1" y2="0.5" gradientTransform="matrix(40,0,0,46.752,4,0.624)" gradientUnits="userSpaceOnUse"><stop offset="0%" stop-opacity="1" style="stop-color:rgb(255,95,109)"/><stop offset="98.26086956521739%" stop-opacity="1" style="stop-color:rgb(255,195,113)"/></linearGradient><path d=" M 25 17 C 25 17 19 21 19 26 C 19 28.281 19.534 30.664 20.25 32.846 C 20.097 32.222 20 31.599 20 31 C 20 28 23 26 23 26 C 23 26 26 28 26 31 C 26 33.35 25.556 35.458 25.088 37.055 C 25.556 37.088 26.033 37.142 26.52 37.213 C 27.763 34.967 29 31.985 29 29 C 29 24 25 20 25 20 L 25 17 Z  M 39.431 42.801 C 39.431 42.801 30.172 37.4 24 37.4 C 17.828 37.4 8.569 42.801 8.569 42.801 C 18.599 25.056 18.599 24.284 24 11.94 C 29.401 24.284 29.401 25.056 39.431 42.801 L 39.431 42.801 Z  M 37.156 46.768 C 35.556 45.842 33.899 45.019 32.195 44.287 C 30.744 43.636 29.246 43.087 27.715 42.63 C 27.018 42.424 26.32 42.253 25.623 42.127 C 25.086 42.035 24.537 41.978 24 41.978 C 23.463 41.978 22.914 42.035 22.377 42.127 C 21.68 42.253 20.982 42.424 20.285 42.63 C 18.754 43.087 17.256 43.636 15.805 44.287 C 14.101 45.019 12.444 45.842 10.844 46.768 C 9.975 47.27 8.969 47.465 7.975 47.339 C 6.98 47.202 6.055 46.745 5.346 46.047 C 4.637 45.339 4.18 44.413 4.043 43.418 C 3.906 42.424 4.1 41.418 4.592 40.55 C 6.375 37.406 8.135 34.263 9.861 31.097 C 11.004 29.016 12.113 26.925 13.187 24.81 C 14.01 23.176 14.799 21.518 15.542 19.861 C 16.376 17.998 17.199 16.146 17.999 14.283 C 19.977 9.711 21.977 5.162 24 0.624 C 26.023 5.162 28.023 9.711 30.001 14.283 C 30.801 16.146 31.624 17.998 32.458 19.861 C 33.201 21.518 33.99 23.176 34.813 24.81 C 35.887 26.925 36.996 29.016 38.139 31.097 C 39.865 34.263 41.625 37.406 43.408 40.55 C 43.9 41.418 44.094 42.424 43.957 43.418 C 43.82 44.413 43.363 45.339 42.654 46.047 C 41.945 46.745 41.02 47.202 40.025 47.339 C 39.031 47.465 38.025 47.27 37.156 46.768 L 37.156 46.768 Z " fill-rule="evenodd" fill="url(#_lgradient_17)"/></svg>
